X: 18570
T: I Lost My Hat In Cathal
R: reel
M: 4/4
K: Amixolydian
e|fecA EAcA|dBGB FBdB|cAEA ceaf|ecdB cAAe|
fecA EAcA|dBGB FBdB|cAEA ceaf|ecac BAAe|
fefa caAe|fefa caBe|fefa AaBa|cadB cAAe|
fefa caAe|fefa caBe|fefa AaBa|cadB cAA||

